X: 7238
T: Clancy's
R: jig
M: 6/8
K: Dminor
|:F2d cBA|fga gec|ded cAF|GFG AFD|
F2d cBA|fga gec|ded cAG|Ad^c d3:|
|:fad fad|fga agf|egc egc|efg gfe|
fga gab|afd ecA|fed cAG|Ad^c d3:|

